X:10312
T:MARCHE de SAINT-CARREUC
Z: Yves BELOTTEAU
M:6/8
L:1/8
Q:1/4=60
K:C
|cd/2ee/2 cd/2ee/2|ce/2gg/2 ag/2e3/2|cd/2ee/2 cd/2ee/2|ce/2gg/2 ag/2e3/2
|
eg/2gg/2 ag/2eg/2|g/2f/2e/2d3/2 g3/2e3/2|eg/2gg/2 ag/2eg/2|g/2f/2e/2d3/2
 g3/2c3/2|
